src/assets/sidebar_icons/file-chart-line.svg

<svg width="24" height="24" viewBox="0 0 24 24" fill="none" xmlns="http://www.w3.org/2000/svg">
<path d="M11 7H13V17H11V7ZM15 11H17V17H15V11ZM7 13H9V17H7V13ZM15 4H5V20H19V8H15V4ZM3 2.992C3 2.444 3.447 2 3.999 2H16L21 7V20.993C21.0009 21.1243 20.976 21.2545 20.9266 21.3762C20.8772 21.4979 20.8043 21.6087 20.7121 21.7022C20.6199 21.7957 20.5101 21.8701 20.3892 21.9212C20.2682 21.9723 20.1383 21.9991 20.007 22H3.993C3.73038 21.9982 3.47902 21.8931 3.29322 21.7075C3.10742 21.5219 3.00209 21.2706 3 21.008V2.992Z" fill="#828282"/>
</svg>

<svg xmlns="http://www.w3.org/2000/svg" viewBox="0 0 24 24" width="24" height="24"><path fill="none" d="M0 0h24v24H0z"/><path d="M11 7h2v10h-2V7zm4 4h2v6h-2v-6zm-8 2h2v4H7v-4zm8-9H5v16h14V8h-4V4zM3 2.992C3 2.444 3.447 2 3.999 2H16l5 5v13.993A1 1 0 0 1 20.007 22H3.993A1 1 0 0 1 3 21.008V2.992z"/></svg>
